src/icons/account.svg

<svg class="icon" fill="none" viewBox="0 0 48 48" xmlns="http://www.w3.org/2000/svg">
    <rect width="48" height="48" fill="#fff"/>
    <path d="m24.402 15.966c3.3043 0 5.9829-2.6786 5.9829-5.9829 0-3.3043-2.6786-5.9829-5.9829-5.9829-3.3042 0-5.9829 2.6786-5.9829 5.9829 0 3.3043 2.6787 5.9829 5.9829 5.9829z" fill="url(#a)"/>
    <path d="m24.402 17.504c-2.4926 0.0027-4.8824 0.9941-6.645 2.7567-1.7626 1.7625-2.754 4.1523-2.7567 6.645v5.9829c0 0.2267 0.09 0.4441 0.2503 0.6044 0.1603 0.1602 0.3777 0.2503 0.6044 0.2503h3.094c0.1071 0 0.2103 0.0403 0.2891 0.1128s0.1276 0.1719 0.1366 0.2786l0.7538 9.0821c0.018 0.214 0.116 0.4134 0.2744 0.5585 0.1583 0.145 0.3655 0.2252 0.5803 0.2244h6.8376c0.2148 8e-4 0.422-0.0794 0.5803-0.2244 0.1584-0.1451 0.2564-0.3445 0.2744-0.5585l0.7573-9.0821c0.0089-0.1061 0.0572-0.2051 0.1353-0.2775s0.1804-0.113 0.2869-0.1139h3.094c0.2267 0 0.4441-0.0901 0.6044-0.2503 0.1603-0.1603 0.2503-0.3777 0.2503-0.6044v-5.9829c-0.0027-2.4927-0.9941-4.8825-2.7567-6.645-1.7626-1.7626-4.1523-2.754-6.645-2.7567z" fill="url(#a)"/>
    <defs>
        <linearGradient id="b" x1="24.402" x2="24.402" y1="4" y2="45.269" gradientUnits="userSpaceOnUse">
            <stop stop-color="#FAF0E1" offset="0"/>
            <stop stop-color="#D7C0A4" offset="1"/>
        </linearGradient>
        <linearGradient id="a" x1="24.402" x2="24.402" y1="17.504" y2="81.851" gradientUnits="userSpaceOnUse">
            <stop stop-color="#00A0DF" offset="0"/>
            <stop stop-color="#007CBF" offset="1"/>
        </linearGradient>
    </defs>
</svg>

<svg class="icon" viewBox="0 0 48 48" fill="none" xmlns="http://www.w3.org/2000/svg">
    <rect width="48" height="48" fill="white"/>
    <path d="M24.4017 15.9658C27.706 15.9658 30.3846 13.2872 30.3846 9.9829C30.3846 6.67864 27.706 4 24.4017 4C21.0975 4 18.4188 6.67864 18.4188 9.9829C18.4188 13.2872 21.0975 15.9658 24.4017 15.9658Z" fill="url(#paint0_linear)"/>
    <path d="M24.4017 17.5043C21.9091 17.507 19.5193 18.4984 17.7567 20.261C15.9941 22.0235 15.0027 24.4133 15 26.906L15 32.8889C15 33.1156 15.09 33.333 15.2503 33.4933C15.4106 33.6535 15.628 33.7436 15.8547 33.7436H18.9487C19.0558 33.7436 19.159 33.7839 19.2378 33.8564C19.3166 33.9289 19.3654 34.0283 19.3744 34.135L20.1282 43.2171C20.1462 43.4311 20.2442 43.6305 20.4026 43.7756C20.5609 43.9206 20.7681 44.0008 20.9829 44H27.8205C28.0353 44.0008 28.2425 43.9206 28.4008 43.7756C28.5592 43.6305 28.6572 43.4311 28.6752 43.2171L29.4325 34.135C29.4414 34.0289 29.4897 33.9299 29.5678 33.8575C29.6459 33.7851 29.7482 33.7445 29.8547 33.7436H32.9487C33.1754 33.7436 33.3928 33.6535 33.5531 33.4933C33.7134 33.333 33.8034 33.1156 33.8034 32.8889V26.906C33.8007 24.4133 32.8093 22.0235 31.0467 20.261C29.2841 18.4984 26.8944 17.507 24.4017 17.5043Z" fill="url(#paint1_linear)"/>
    <defs>
        <linearGradient id="paint0_linear" x1="24.4017" y1="4" x2="24.4017" y2="45.2694" gradientUnits="userSpaceOnUse">
            <stop stop-color="#FAF0E1"/>
            <stop offset="1" stop-color="#D7C0A4"/>
        </linearGradient>
        <linearGradient id="paint1_linear" x1="24.4017" y1="17.5043" x2="24.4017" y2="81.851" gradientUnits="userSpaceOnUse">
            <stop stop-color="#00A0DF"/>
            <stop offset="1" stop-color="#007CBF"/>
        </linearGradient>
    </defs>
</svg>
